icons/numix/16x16/status/synapse.svg

<?xml version="1.0" encoding="UTF-8" standalone="no"?>
<svg
   xmlns:dc="http://purl.org/dc/elements/1.1/"
   xmlns:cc="http://creativecommons.org/ns#"
   xmlns:rdf="http://www.w3.org/1999/02/22-rdf-syntax-ns#"
   xmlns:svg="http://www.w3.org/2000/svg"
   xmlns="http://www.w3.org/2000/svg"
   xmlns:sodipodi="http://sodipodi.sourceforge.net/DTD/sodipodi-0.dtd"
   xmlns:inkscape="http://www.inkscape.org/namespaces/inkscape"
   width="16"
   height="16"
   viewBox="0 0 16 16"
   id="svg3001"
   version="1.1"
   inkscape:version="0.48.5 r10040"
   sodipodi:docname="synapse.svg">
  <metadata
     id="metadata3071">
    <rdf:RDF>
      <cc:Work
         rdf:about="">
        <dc:format>image/svg+xml</dc:format>
        <dc:type
           rdf:resource="http://purl.org/dc/dcmitype/StillImage" />
      </cc:Work>
    </rdf:RDF>
  </metadata>
  <sodipodi:namedview
     pagecolor="#ffffff"
     bordercolor="#666666"
     borderopacity="1"
     objecttolerance="10"
     gridtolerance="10"
     guidetolerance="10"
     inkscape:pageopacity="0"
     inkscape:pageshadow="2"
     inkscape:window-width="1280"
     inkscape:window-height="998"
     id="namedview3069"
     showgrid="true"
     inkscape:zoom="29.5"
     inkscape:cx="8.4931641"
     inkscape:cy="4.7301392"
     inkscape:window-x="0"
     inkscape:window-y="0"
     inkscape:window-maximized="1"
     inkscape:current-layer="svg3001">
    <inkscape:grid
       type="xygrid"
       id="grid3126" />
  </sodipodi:namedview>
  <defs
     id="defs3003">
    <filter
       id="0"
       filterUnits="objectBoundingBox"
       x="0"
       y="0"
       width="16"
       height="16">
      <feColorMatrix
         type="matrix"
         in="SourceGraphic"
         values="0 0 0 0 1 0 0 0 0 1 0 0 0 0 1 0 0 0 1 0"
         id="feColorMatrix3006" />
    </filter>
    <mask
       id="1">
      <g
         filter="url(#0)"
         id="g3009">
        <rect
           width="16"
           height="16"
           fill-opacity="0.302"
           id="rect3011" />
      </g>
    </mask>
    <clipPath
       id="2">
      <path
         d="M 3 2 L 13 2 L 13 15 L 3 15 Z "
         id="path3014" />
    </clipPath>
    <clipPath
       id="3">
      <path
         d="M 7.4375 2.910156 L 7.4375 4.21875 C 5.589844 4.453125 4.089844 5.8125 3.636719 7.59375 L 4.804688 7.59375 C 5.285156 6.308594 6.550781 5.304688 7.9375 5.3125 C 7.972656 5.3125 8.003906 5.3125 8.039062 5.3125 C 8.542969 5.316406 9.039062 5.441406 9.484375 5.667969 C 10.292969 6.035156 10.894531 6.757812 11.1875 7.59375 L 12.363281 7.59375 C 11.910156 5.8125 10.410156 4.453125 8.5625 4.21875 L 8.5625 2.910156 Z M 3.636719 9.867188 C 4.089844 11.648438 5.589844 13.007812 7.4375 13.238281 L 7.4375 14.546875 L 8.5625 14.546875 L 8.5625 13.238281 C 10.410156 13.007812 11.910156 11.648438 12.363281 9.867188 L 11.203125 9.867188 C 10.746094 11.21875 9.339844 12.195312 7.917969 12.144531 C 6.53125 12.152344 5.273438 11.152344 4.804688 9.867188 Z "
         id="path3017" />
    </clipPath>
    <clipPath
       id="4">
      <path
         d="M 5 6 L 11 6 L 11 12 L 5 12 Z "
         id="path3020" />
    </clipPath>
    <clipPath
       id="5">
      <path
         d="M 8 6.199219 C 6.632812 6.199219 5.519531 7.316406 5.519531 8.703125 C 5.519531 8.703125 5.503906 8.9375 5.574219 9.203125 L 9.386719 9.203125 C 9.28125 9.492188 9.097656 9.753906 8.847656 9.925781 C 8.269531 10.382812 7.398438 10.21875 6.90625 9.703125 L 5.726562 9.703125 C 6.109375 10.585938 6.984375 11.203125 8 11.203125 C 9.371094 11.203125 10.480469 10.082031 10.480469 8.703125 C 10.480469 8.703125 10.480469 8.445312 10.433594 8.203125 L 6.621094 8.203125 C 6.835938 7.65625 7.347656 7.210938 7.941406 7.207031 C 7.972656 7.207031 8.003906 7.207031 8.03125 7.207031 C 8.429688 7.214844 8.816406 7.40625 9.085938 7.703125 L 10.273438 7.703125 C 9.890625 6.816406 9.019531 6.199219 8 6.199219 Z "
         id="path3023" />
    </clipPath>
    <clipPath
       id="6">
      <rect
         width="16"
         height="16"
         id="rect3026" />
    </clipPath>
    <g
       id="7"
       clip-path="url(#6)">
      <g
         clip-path="url(#2)"
         id="g3029">
        <g
           clip-path="url(#3)"
           id="g3031">
          <path
             d="M 7.4375 2.910156 L 7.4375 4.21875 C 5.589844 4.453125 4.089844 5.8125 3.636719 7.59375 L 4.804688 7.59375 C 5.285156 6.308594 6.550781 5.304688 7.9375 5.3125 C 7.972656 5.3125 8.003906 5.3125 8.039062 5.3125 C 8.542969 5.316406 9.039062 5.441406 9.484375 5.667969 C 10.292969 6.035156 10.894531 6.757812 11.1875 7.59375 L 12.363281 7.59375 C 11.910156 5.8125 10.410156 4.453125 8.5625 4.21875 L 8.5625 2.910156 Z M 3.636719 9.867188 C 4.089844 11.648438 5.589844 13.007812 7.4375 13.238281 L 7.4375 14.546875 L 8.5625 14.546875 L 8.5625 13.238281 C 10.410156 13.007812 11.910156 11.648438 12.363281 9.867188 L 11.203125 9.867188 C 10.746094 11.21875 9.339844 12.195312 7.917969 12.144531 C 6.53125 12.152344 5.273438 11.152344 4.804688 9.867188 Z "
             id="path3033" />
        </g>
      </g>
      <g
         clip-path="url(#4)"
         id="g3035">
        <g
           clip-path="url(#5)"
           id="g3037">
          <path
             d="M 8 6.257812 C 6.632812 6.257812 5.519531 7.371094 5.519531 8.757812 C 5.519531 8.757812 5.503906 8.992188 5.574219 9.257812 L 9.386719 9.257812 C 9.28125 9.546875 9.097656 9.808594 8.847656 9.980469 C 8.269531 10.441406 7.398438 10.273438 6.90625 9.757812 L 5.726562 9.757812 C 6.109375 10.640625 6.984375 11.261719 8 11.261719 C 9.371094 11.261719 10.480469 10.140625 10.480469 8.757812 C 10.480469 8.757812 10.480469 8.5 10.433594 8.257812 L 6.621094 8.257812 C 6.835938 7.710938 7.347656 7.269531 7.941406 7.261719 C 7.972656 7.261719 8.003906 7.261719 8.03125 7.261719 C 8.429688 7.269531 8.816406 7.460938 9.085938 7.757812 L 10.273438 7.757812 C 9.890625 6.875 9.019531 6.257812 8 6.257812 Z "
             id="path3039" />
        </g>
      </g>
    </g>
    <clipPath
       id="8">
      <path
         d="M 3 2 L 13 2 L 13 14 L 3 14 Z "
         id="path3042" />
    </clipPath>
    <clipPath
       id="9">
      <path
         d="M 7.4375 2.183594 L 7.4375 3.492188 C 5.589844 3.726562 4.089844 5.085938 3.636719 6.867188 L 4.804688 6.867188 C 5.285156 5.578125 6.550781 4.578125 7.9375 4.585938 C 7.972656 4.585938 8.003906 4.585938 8.039062 4.585938 C 8.542969 4.589844 9.039062 4.714844 9.484375 4.941406 C 10.292969 5.308594 10.894531 6.03125 11.1875 6.867188 L 12.363281 6.867188 C 11.910156 5.085938 10.410156 3.726562 8.5625 3.492188 L 8.5625 2.183594 Z M 3.636719 9.136719 C 4.089844 10.921875 5.589844 12.277344 7.4375 12.511719 L 7.4375 13.820312 L 8.5625 13.820312 L 8.5625 12.511719 C 10.410156 12.277344 11.910156 10.921875 12.363281 9.136719 L 11.203125 9.136719 C 10.746094 10.492188 9.339844 11.46875 7.917969 11.417969 C 6.53125 11.425781 5.273438 10.425781 4.804688 9.136719 Z "
         id="path3045" />
    </clipPath>
    <clipPath
       id="A">
      <path
         d="M 5 5 L 11 5 L 11 11 L 5 11 Z "
         id="path3048" />
    </clipPath>
    <clipPath
       id="B">
      <path
         d="M 8 5.472656 C 6.632812 5.472656 5.519531 6.585938 5.519531 7.976562 C 5.519531 7.976562 5.503906 8.210938 5.574219 8.476562 L 9.386719 8.476562 C 9.28125 8.765625 9.097656 9.023438 8.847656 9.199219 C 8.269531 9.65625 7.398438 9.492188 6.90625 8.976562 L 5.726562 8.976562 C 6.109375 9.859375 6.984375 10.476562 8 10.476562 C 9.371094 10.476562 10.480469 9.355469 10.480469 7.976562 C 10.480469 7.976562 10.480469 7.71875 10.433594 7.472656 L 6.621094 7.472656 C 6.835938 6.925781 7.347656 6.484375 7.941406 6.480469 C 7.972656 6.476562 8.003906 6.476562 8.03125 6.476562 C 8.429688 6.488281 8.816406 6.675781 9.085938 6.972656 L 10.273438 6.972656 C 9.890625 6.089844 9.019531 5.472656 8 5.472656 Z "
         id="path3051" />
    </clipPath>
  </defs>
  <g
     clip-path="url(#9)"
     id="g3059"
     style="fill:#ececec;fill-opacity:1">
    <path
       d="m 7.4375,2.183594 0,1.308594 c -1.847656,0.234374 -3.347656,1.59375 -3.800781,3.375 l 1.167969,0 C 5.285156,5.578125 6.550781,4.578125 7.9375,4.585938 c 0.035156,0 0.066406,0 0.101562,0 0.503907,0.00391 1,0.128906 1.445313,0.355468 0.808594,0.367188 1.410156,1.089844 1.703125,1.925782 l 1.175781,0 C 11.910156,5.085938 10.410156,3.726562 8.5625,3.492188 l 0,-1.308594 z M 3.636719,9.136719 c 0.453125,1.785156 1.953125,3.140625 3.800781,3.375 l 0,1.308593 1.125,0 0,-1.308593 c 1.847656,-0.234375 3.347656,-1.589844 3.800781,-3.375 l -1.160156,0 c -0.457031,1.355469 -1.863281,2.332031 -3.285156,2.28125 -1.386719,0.0078 -2.644531,-0.992188 -3.113281,-2.28125 z"
       id="path3061"
       inkscape:connector-curvature="0"
       style="fill:#ececec;fill-opacity:1" />
  </g>
  <g
     clip-path="url(#B)"
     id="g3065"
     style="fill:#ececec;fill-opacity:1">
    <path
       d="m 8,5.527344 c -1.367188,0 -2.480469,1.117187 -2.480469,2.503906 0,0 -0.015625,0.234375 0.054688,0.5 l 3.8125,0 C 9.28125,8.820312 9.097656,9.082031 8.847656,9.253906 8.269531,9.714844 7.398438,9.546875 6.90625,9.03125 l -1.179688,0 c 0.382813,0.882812 1.257813,1.5 2.273438,1.5 1.371094,0 2.480469,-1.117188 2.480469,-2.5 0,0 0,-0.257812 -0.04687,-0.5 l -3.8125,0 C 6.835938,6.984375 7.347656,6.539062 7.941406,6.535156 c 0.03125,0 0.0625,0 0.089844,0 0.398438,0.00781 0.785156,0.199219 1.054688,0.496094 l 1.1875,0 C 9.890625,6.148438 9.019531,5.527344 8,5.527344 z"
       id="path3067"
       inkscape:connector-curvature="0"
       style="fill:#ececec;fill-opacity:1" />
  </g>
</svg>

<svg xmlns="http://www.w3.org/2000/svg" xmlns:xlink="http://www.w3.org/1999/xlink" width="16" height="16" viewBox="0 0 16 16">
 <defs>
  <filter id="0" filterUnits="objectBoundingBox" x="0" y="0" width="16" height="16">
   <feColorMatrix type="matrix" in="SourceGraphic" values="0 0 0 0 1 0 0 0 0 1 0 0 0 0 1 0 0 0 1 0"/>
  </filter>
  <mask id="1">
   <g filter="url(#0)">
    <rect width="16" height="16" fill-opacity="0.302"/>
   </g>
  </mask>
  <clipPath id="2">
   <path d="M 3 2 L 13 2 L 13 15 L 3 15 Z "/>
  </clipPath>
  <clipPath id="3">
   <path d="M 7.4375 2.910156 L 7.4375 4.21875 C 5.589844 4.453125 4.089844 5.8125 3.636719 7.59375 L 4.804688 7.59375 C 5.285156 6.308594 6.550781 5.304688 7.9375 5.3125 C 7.972656 5.3125 8.003906 5.3125 8.039062 5.3125 C 8.542969 5.316406 9.039062 5.441406 9.484375 5.667969 C 10.292969 6.035156 10.894531 6.757812 11.1875 7.59375 L 12.363281 7.59375 C 11.910156 5.8125 10.410156 4.453125 8.5625 4.21875 L 8.5625 2.910156 Z M 3.636719 9.867188 C 4.089844 11.648438 5.589844 13.007812 7.4375 13.238281 L 7.4375 14.546875 L 8.5625 14.546875 L 8.5625 13.238281 C 10.410156 13.007812 11.910156 11.648438 12.363281 9.867188 L 11.203125 9.867188 C 10.746094 11.21875 9.339844 12.195312 7.917969 12.144531 C 6.53125 12.152344 5.273438 11.152344 4.804688 9.867188 Z "/>
  </clipPath>
  <clipPath id="4">
   <path d="M 5 6 L 11 6 L 11 12 L 5 12 Z "/>
  </clipPath>
  <clipPath id="5">
   <path d="M 8 6.199219 C 6.632812 6.199219 5.519531 7.316406 5.519531 8.703125 C 5.519531 8.703125 5.503906 8.9375 5.574219 9.203125 L 9.386719 9.203125 C 9.28125 9.492188 9.097656 9.753906 8.847656 9.925781 C 8.269531 10.382812 7.398438 10.21875 6.90625 9.703125 L 5.726562 9.703125 C 6.109375 10.585938 6.984375 11.203125 8 11.203125 C 9.371094 11.203125 10.480469 10.082031 10.480469 8.703125 C 10.480469 8.703125 10.480469 8.445312 10.433594 8.203125 L 6.621094 8.203125 C 6.835938 7.65625 7.347656 7.210938 7.941406 7.207031 C 7.972656 7.207031 8.003906 7.207031 8.03125 7.207031 C 8.429688 7.214844 8.816406 7.40625 9.085938 7.703125 L 10.273438 7.703125 C 9.890625 6.816406 9.019531 6.199219 8 6.199219 Z "/>
  </clipPath>
  <clipPath id="6">
   <rect width="16" height="16"/>
  </clipPath>
  <g id="7" clip-path="url(#6)">
   <g clip-path="url(#2)">
    <g clip-path="url(#3)">
     <path d="M 7.4375 2.910156 L 7.4375 4.21875 C 5.589844 4.453125 4.089844 5.8125 3.636719 7.59375 L 4.804688 7.59375 C 5.285156 6.308594 6.550781 5.304688 7.9375 5.3125 C 7.972656 5.3125 8.003906 5.3125 8.039062 5.3125 C 8.542969 5.316406 9.039062 5.441406 9.484375 5.667969 C 10.292969 6.035156 10.894531 6.757812 11.1875 7.59375 L 12.363281 7.59375 C 11.910156 5.8125 10.410156 4.453125 8.5625 4.21875 L 8.5625 2.910156 Z M 3.636719 9.867188 C 4.089844 11.648438 5.589844 13.007812 7.4375 13.238281 L 7.4375 14.546875 L 8.5625 14.546875 L 8.5625 13.238281 C 10.410156 13.007812 11.910156 11.648438 12.363281 9.867188 L 11.203125 9.867188 C 10.746094 11.21875 9.339844 12.195312 7.917969 12.144531 C 6.53125 12.152344 5.273438 11.152344 4.804688 9.867188 Z "/>
    </g>
   </g>
   <g clip-path="url(#4)">
    <g clip-path="url(#5)">
     <path d="M 8 6.257812 C 6.632812 6.257812 5.519531 7.371094 5.519531 8.757812 C 5.519531 8.757812 5.503906 8.992188 5.574219 9.257812 L 9.386719 9.257812 C 9.28125 9.546875 9.097656 9.808594 8.847656 9.980469 C 8.269531 10.441406 7.398438 10.273438 6.90625 9.757812 L 5.726562 9.757812 C 6.109375 10.640625 6.984375 11.261719 8 11.261719 C 9.371094 11.261719 10.480469 10.140625 10.480469 8.757812 C 10.480469 8.757812 10.480469 8.5 10.433594 8.257812 L 6.621094 8.257812 C 6.835938 7.710938 7.347656 7.269531 7.941406 7.261719 C 7.972656 7.261719 8.003906 7.261719 8.03125 7.261719 C 8.429688 7.269531 8.816406 7.460938 9.085938 7.757812 L 10.273438 7.757812 C 9.890625 6.875 9.019531 6.257812 8 6.257812 Z "/>
    </g>
   </g>
  </g>
  <clipPath id="8">
   <path d="M 3 2 L 13 2 L 13 14 L 3 14 Z "/>
  </clipPath>
  <clipPath id="9">
   <path d="M 7.4375 2.183594 L 7.4375 3.492188 C 5.589844 3.726562 4.089844 5.085938 3.636719 6.867188 L 4.804688 6.867188 C 5.285156 5.578125 6.550781 4.578125 7.9375 4.585938 C 7.972656 4.585938 8.003906 4.585938 8.039062 4.585938 C 8.542969 4.589844 9.039062 4.714844 9.484375 4.941406 C 10.292969 5.308594 10.894531 6.03125 11.1875 6.867188 L 12.363281 6.867188 C 11.910156 5.085938 10.410156 3.726562 8.5625 3.492188 L 8.5625 2.183594 Z M 3.636719 9.136719 C 4.089844 10.921875 5.589844 12.277344 7.4375 12.511719 L 7.4375 13.820312 L 8.5625 13.820312 L 8.5625 12.511719 C 10.410156 12.277344 11.910156 10.921875 12.363281 9.136719 L 11.203125 9.136719 C 10.746094 10.492188 9.339844 11.46875 7.917969 11.417969 C 6.53125 11.425781 5.273438 10.425781 4.804688 9.136719 Z "/>
  </clipPath>
  <clipPath id="A">
   <path d="M 5 5 L 11 5 L 11 11 L 5 11 Z "/>
  </clipPath>
  <clipPath id="B">
   <path d="M 8 5.472656 C 6.632812 5.472656 5.519531 6.585938 5.519531 7.976562 C 5.519531 7.976562 5.503906 8.210938 5.574219 8.476562 L 9.386719 8.476562 C 9.28125 8.765625 9.097656 9.023438 8.847656 9.199219 C 8.269531 9.65625 7.398438 9.492188 6.90625 8.976562 L 5.726562 8.976562 C 6.109375 9.859375 6.984375 10.476562 8 10.476562 C 9.371094 10.476562 10.480469 9.355469 10.480469 7.976562 C 10.480469 7.976562 10.480469 7.71875 10.433594 7.472656 L 6.621094 7.472656 C 6.835938 6.925781 7.347656 6.484375 7.941406 6.480469 C 7.972656 6.476562 8.003906 6.476562 8.03125 6.476562 C 8.429688 6.488281 8.816406 6.675781 9.085938 6.972656 L 10.273438 6.972656 C 9.890625 6.089844 9.019531 5.472656 8 5.472656 Z "/>
  </clipPath>
 </defs>
 <g>
  <use xlink:href="#7" mask="url(#1)"/>
  <g clip-path="url(#8)">
   <g clip-path="url(#9)">
    <path d="M 7.4375 2.183594 L 7.4375 3.492188 C 5.589844 3.726562 4.089844 5.085938 3.636719 6.867188 L 4.804688 6.867188 C 5.285156 5.578125 6.550781 4.578125 7.9375 4.585938 C 7.972656 4.585938 8.003906 4.585938 8.039062 4.585938 C 8.542969 4.589844 9.039062 4.714844 9.484375 4.941406 C 10.292969 5.308594 10.894531 6.03125 11.1875 6.867188 L 12.363281 6.867188 C 11.910156 5.085938 10.410156 3.726562 8.5625 3.492188 L 8.5625 2.183594 Z M 3.636719 9.136719 C 4.089844 10.921875 5.589844 12.277344 7.4375 12.511719 L 7.4375 13.820312 L 8.5625 13.820312 L 8.5625 12.511719 C 10.410156 12.277344 11.910156 10.921875 12.363281 9.136719 L 11.203125 9.136719 C 10.746094 10.492188 9.339844 11.46875 7.917969 11.417969 C 6.53125 11.425781 5.273438 10.425781 4.804688 9.136719 Z " fill="#dcdcdc"/>
   </g>
  </g>
  <g clip-path="url(#A)">
   <g clip-path="url(#B)">
    <path d="M 8 5.527344 C 6.632812 5.527344 5.519531 6.644531 5.519531 8.03125 C 5.519531 8.03125 5.503906 8.265625 5.574219 8.53125 L 9.386719 8.53125 C 9.28125 8.820312 9.097656 9.082031 8.847656 9.253906 C 8.269531 9.714844 7.398438 9.546875 6.90625 9.03125 L 5.726562 9.03125 C 6.109375 9.914062 6.984375 10.53125 8 10.53125 C 9.371094 10.53125 10.480469 9.414062 10.480469 8.03125 C 10.480469 8.03125 10.480469 7.773438 10.433594 7.53125 L 6.621094 7.53125 C 6.835938 6.984375 7.347656 6.539062 7.941406 6.535156 C 7.972656 6.535156 8.003906 6.535156 8.03125 6.535156 C 8.429688 6.542969 8.816406 6.734375 9.085938 7.03125 L 10.273438 7.03125 C 9.890625 6.148438 9.019531 5.527344 8 5.527344 Z " fill="#dcdcdc"/>
   </g>
  </g>
 </g>
</svg>
